!!!OTL: DES ABENDS WENN ICH SCHLAFEN GEH
!!!ARE: Europa, Mitteleuropa, Deutschland, Lahnkreis; Dillkreis; Westerwald
!!!SCT: E0527C
!!!YEM: Copyright 1995, estate of Helmut Schaffrath.
**kern
*ICvox
*Ivox
*M2/4
*k[f#]
*G:
{8d
=1
8g
8d
8d
8g
=2
8e
8e
8e}
{8cc
=3
8dd
8dd
8cc
8f#
=4
4g
8r}
{16g
16a
=5
8b
8b
8b
8dd
=6
8cc
8a
8a}
{16a
16b
=7
8cc
8cc
8cc
8ee
=8
8dd
8b
8b}
{8g
=9
8.e
16f#
16g
16f#
16g
16e
=10
4d
8g}
{8b
=11
8dd
8cc
8a
8f#
=12
4g
8r}
==
!!!AGN: Liebes - Lied
!!!ONB: ESAC (Essen Associative Code) Database: ERK1
!!!AMT: simple duple
!!!AIN: vox
!!!EED: Helmut Schaffrath
!!!EEV: 1.0
*-
